!!!COM: Schoenberg [Schönberg], Arnold (Franz Walter)
!!!OTL: Suite for Seven Instruments, op. 29
!!!OMV: II: Tanzschritte (Dance Steps): Moderato
!!!example: 207
!!!work: Sch-28
**kern	**kern	**dynam	**kern	**dynam	**kern	**dynam	**kern	**dynam
*part5	*part4	*part4	*part3	*part3	*part2	*part2	*part1	*part1
*staff6	*staff4	*	*staff3	*	*staff2	*	*staff1	*
*I"Piano	*I"Violoncello	*	*I"Viola	*	*I"Violin I	*	*I"Bass Clarinet in Bb	*
*I'Pno.	*I'Vc.	*	*I'Vla.	*	*I'Vln. I	*	*I'B. Cl.	*
*clefG2	*clefF4	*	*clefC3	*	*clefG2	*	*clefF4	*
*k[]	*k[]	*	*k[]	*	*k[]	*	*k[]	*
*C:	*C:	*	*C:	*	*C:	*	*C:	*
*M2/4	*M2/4	*	*M2/4	*	*M2/4	*	*M2/4	*
*MM121	*MM121	*	*MM121	*	*MM121	*	*MM121	*
=76	=76	=76	=76	=76	=76	=76	=76	=76
2r	16AA-X	fp	16r	.	16r	.	8r	.
.	32r	.	16Dn`LL 16Bn	mf	16Gn`LL 16e-X	mf	.	.
.	(32En	.	.	.	.	.	.	.
.	4FF)	.	16D` 16B	.	16G` 16e-	.	4.d-X	f
.	.	.	16D`JJ 16B	.	16G`JJ 16e-	.	.	.
.	.	.	8D` 8B	.	8G` 8e-	.	.	.
.	[8AA-X^	.	16r	.	16r	.	.	.
.	.	.	16En` 16B-X	.	16A-X` 16g-X	.	.	.
=77	=77	=77	=77	=77	=77	=77	=77	=77
2r	16AA-]	.	16En`LL 16B-X	.	16A-X`LL 16g-X	.	4.Cn	.
.	32r	.	16E`J 16B-	.	16A-`J 16g-	.	.	.
.	32BBn	<	.	.	.	.	.	.
.	4dn	[ fp	8E`J 8B-	.	8A-`J 8g-	.	.	.
.	.	.	16r	.	16r	.	.	.
.	.	.	16E-X`LL 16B-X	.	16A-`LL 16g-	.	.	.
.	16GGn	.	16Cn` 16d-X	.	16An` 16fn	.	16E-X	.
.	32r	.	16C`JJ 16d-	.	16A`JJ 16f	.	32r	.
.	32F#X	.	.	.	.	.	32En	.
=78	=78	=78	=78	=78	=78	=78	=78	=78
2r	(32BB-X'LLL	.	8Cn` 8d-X	.	8An` 8fn	.	4E-X	.
.	32BB-'J	.	.	.	.	.	.	.
.	16BB-'J)	.	.	.	.	.	.	.
.	8GG-XJ	.	16r	.	16r	.	.	.
.	.	.	16C` 16d-X	.	16An` 16fn	.	.	.
.	16r	.	16C`LL 16d-X	.	16A`LL 16f	.	16GGnKL	.
.	32r	.	16E-X`J 16B-X	.	16A-X`J 16g-X	.	[8.GGJ	.
.	(32E-XKKL	.	.	.	.	.	.	.
.	[8DDnJ)	.	8E-`J 8B-	.	8A-`J 8g-	.	.	.
=79	=79	=79	=79	=79	=79	=79	=79	=79
!!linebreak:original
2r	8DDL]	.	16r	.	16r	.	8GG]	.
.	.	.	16En`LL 16B-X	.	16A-X`LL 16g-X	.	.	.
.	[8DDJ	.	16E` 16B-	.	16A-` 16g-	.	8r	.
.	.	.	16E`JJ 16B-	.	16A-`JJ 16g-	.	.	.
.	16DD]	.	8E-X` 8B-X	.	8Gn` 8g-	.	[4Bn	.
.	32r	.	.	.	.	.	.	.
.	(32cnKKL	.	.	.	.	.	.	.
.	[8AAnJ	.	16r	.	16r	.	.	.
.	.	.	16E-X` 16B-X	.	16Gn` 16f#X	.	.	.
=80	=80	=80	=80	=80	=80	=80	=80	=80
2r	8AAL])	.	16E-X`LL 16B-X	.	16Gn`LL 16f#X	.	8B]	.
.	.	.	16E-`J 16B-	.	16Gn`J 16f#	.	.	.
.	[8C#XJ	.	8E-`J 8B-	.	8Gn`J 8dn	.	4.Fn	.
.	16C#]	.	16r	.	16r	.	.	.
.	32r	.	16Cn`LL 16Bn	.	16An`LL 16dn	.	.	.
.	32EE#XKKL	.	.	.	.	.	.	.
.	[8G#XJ	.	16C` 16B	.	16A` 16d	.	.	.
.	.	.	16C`JJ 16B	.	16A`JJ 16d	.	.	.
=81	=81	=81	=81	=81	=81	=81	=81	=81
!!pagebreak:original
2r	8G#L]	.	8C` 8d-X	.	8An` 8fn	.	16En	.
.	.	.	.	.	.	.	32r	.
.	.	.	.	.	.	.	32E	.
.	16FFnJk	.	16r	.	16r	.	4E	.
.	32r	.	16D-X` 16B-X	.	16Gn` 16f#X	.	.	.
.	32c#X	.	.	.	.	.	.	.
.	16An	.	16D-`LL 16B-	.	16Gn`LL 16f#	.	.	.
.	16r	.	16D-`J 16B-	.	16Gn`J 16f#	.	.	.
.	[8BBn	.	8D-`J 8B-	.	8G#X`J 8f#X	.	16CCnLL	.
.	.	.	.	.	.	.	[16CCJJ	.
=82	=82	=82	=82	=82	=82	=82	=82	=82
8r	16BB]	.	16r	.	16r	.	2CC]	.
.	32r	.	16En`LL 16d-X	.	16A-X`LL 16fn	.	.	.
.	32Dn	.	.	.	.	.	.	.
32r	4EE-X	.	16d-`	.	16An` 16f	.	.	.
16EnLL	.	.	.	.	.	.	.	.
.	.	.	16d-`JJ	.	16A`JJ 16f	.	.	.
32d#XJJk	.	.	.	.	.	.	.	.
8.G-XL	.	.	16d-`	.	16A` 16f	.	.	.
.	.	.	16r	.	16r	.	.	.
.	16EE-	sf	16d-`	.	16A` 16f	.	.	.
16G-Jk	16r	.	16r	.	16r	.	.	.
=	=	=	=	=	=	=	=	=
*-	*-	*-	*-	*-	*-	*-	*-	*-
!!!system-decoration: s1[(s2,s3,s4)]{(s5,s6)}
!!!CDT: 1874/09/13-1951/07/13
!!!CBL: Vienna, Austria
!!!CDL: Los Angeles, United States
!!!CNT: Austrian
!!!AGN: Instrumental; Chamber
!!!MCN: Schoenberg, Arnold
!!!MDT: 1927/12/15
!!!MGN:
!!!MLC: Paris, France
!!!MPD: 1927
!!!MPN: Boulay, Elizabeth; Cahuzac, Louis; Darrieux, Marcel; Delacroix, Jacques; Frechville, Marcel; Steuermann, Eduard
!!!ODT: 1926
!!!PDT: 1927
!!!excerpt-start-measure: 76
!!!excerpt-end-measure: 82
!!!excerpt-start-time: 2:56
!!!excerpt-end-time: 3:12
!!!EEV: 2020/01/22
!!!ONB: Converted from MusicXML on 2020/01/22
